!!!!SEGMENT: pl-gd--ee-2628--007-003_stabile-annibale--sacrarum-modulationum-caro-mea.krn
!!!cenid: 15xx:1092
!!!COM: Stabile, Annibale
!!!COM-rismid: pe30009662
!!!CDT: ~1535-1595/04
!!!CNT: Italian
!!!GTL: Sacrarum modulationum
!!!OTL: Caro mea
!!!OMV: 003
!!!PDT: 1585
!!!AGN:
!!!SMS-siglum: PL-GD
!!!SMS-shelfmark: Ee 2628
!!!SMS-shelfwork: 007-003 G
!!!SMS-variant:
!!!SMS-altvar:
!!!NIFC-rismid: 990060529
!!!URL-scan: https://repozytorium.nifc.pl/islandora/object/pl-gd%3A66139/datastream/PDF/view
!!!ONB-nifc: UWAGA: Cantus: s. 102-113, Tenore: s. 258-269, Basso: s. 414-425, Quinto: s. 736-747, Sextus: s. 624-632. Dla głosu Alto proszę skorzystać z https://pbc.gda.pl/dlibra/publication/87583/edition/79412/content, s. 25-48. Uwaga: utwory podzielone wg spisu treści dostępnych na końcu ksiąg – proszę sprawdzać sąsiednie tytuły i zwracać uwagę na liczbę głosów. Głosy Quinto i Sextus proszę umieszczać wg ambitusu (może się różnić w zależności od utworu).
!!!AIN: 1 alto 1 bass 1 soprn 1 tenor 2 vox
!!!key: C
**kern	**kern	**text	**kern	**text	**kern	**text	**kern	**text	**kern	**text
*part6	*part5	*part5	*part4	*part4	*part3	*part3	*part2	*part2	*part1	*part1
*staff6	*staff5	*staff5	*staff4	*staff4	*staff3	*staff3	*staff2	*staff2	*staff1	*staff1
*I"SEXTUS	*I"BASSVS	*	*I"TENOR	*	*I"QVINTVS	*	*I"ALTVS	*	*I"CANTVS	*
*I'V 6	*I'B	*	*I'T	*	*I'V 5	*	*I'A	*	*I'S	*
*ICvox	*ICvox	*	*ICvox	*	*ICvox	*	*ICvox	*	*ICvox	*
*Ivox	*Ibass	*	*Itenor	*	*Ivox	*	*Ialto	*	*Isoprn	*
*clefG2	*clefF3	*	*clefC3	*	*clefC3	*	*clefC2	*	*clefG2	*
*k[]	*k[]	*	*k[]	*	*k[]	*	*k[]	*	*k[]	*
*C:	*C:	*	*C:	*	*C:	*	*C:	*	*C:	*
*M2/2	*M2/2	*	*M2/2	*	*M2/2	*	*M2/2	*	*M2/2	*
*met(C|)	*met(C|)	*	*met(C|)	*	*met(C|)	*	*met(C|)	*	*met(C|)	*
=1-	=1-	=1-	=1-	=1-	=1-	=1-	=1-	=1-	=1-	=1-
!	!LO:TX:b:t=CAro mea.	!	!	!	!	!	!	!	!	!
!LO:TX:t=P:problem:brak partii w źródle	!LO:TX:a:t=Secunda pars.	!	!LO:TX:a:t=Secunda pars.	!	!LO:TX:a:t=Secunda pars.	!	!LO:TX:a:t=Secunda pars.	!	!LO:TX:a:t=Secunda pars.	!
1ryy	00r	.	00r	.	00r	.	0c	CA-	00r	.
=2-	=2-	=2-	=2-	=2-	=2-	=2-	=2-	=2-	=2-	=2-
1ryy	.	.	.	.	.	.	.	.	.	.
=3-	=3-	=3-	=3-	=3-	=3-	=3-	=3-	=3-	=3-	=3-
1ryy	.	.	.	.	.	.	1e	-ro	.	.
=4-	=4-	=4-	=4-	=4-	=4-	=4-	=4-	=4-	=4-	=4-
1ryy	.	.	.	.	.	.	1d	me-	.	.
=5-	=5-	=5-	=5-	=5-	=5-	=5-	=5-	=5-	=5-	=5-
1ryy	00r	.	00r	.	0e	CA-	2c/	-a	00r	.
.	.	.	.	.	.	.	2cc\	ve-	.	.
=6-	=6-	=6-	=6-	=6-	=6-	=6-	=6-	=6-	=6-	=6-
1ryy	.	.	.	.	.	.	2b\	-re	.	.
.	.	.	.	.	.	.	2g\	eſt	.	.
=7-	=7-	=7-	=7-	=7-	=7-	=7-	=7-	=7-	=7-	=7-
1ryy	.	.	.	.	1c	-ro	2.a\	ci-	.	.
.	.	.	.	.	.	.	4g\	.	.	.
=8-	=8-	=8-	=8-	=8-	=8-	=8-	=8-	=8-	=8-	=8-
1ryy	.	.	.	.	1d	me-	1f	.	.	.
=9-	=9-	=9-	=9-	=9-	=9-	=9-	=9-	=9-	=9-	=9-
1ryy	00r	.	00r	.	2e\	-a	2g\	-bus	0ee	CA-
.	.	.	.	.	2a\	ve-	2cc\	ve-	.	.
=10-	=10-	=10-	=10-	=10-	=10-	=10-	=10-	=10-	=10-	=10-
1ryy	.	.	.	.	2g\	-re	2b\	-re	.	.
.	.	.	.	.	2e\	eſt	2g\	eſt	.	.
=11-	=11-	=11-	=11-	=11-	=11-	=11-	=11-	=11-	=11-	=11-
1ryy	.	.	.	.	2.f\	ci-	2a\	ci-	1cc	-ro
.	.	.	.	.	.	.	2.cc\	.	.	.
.	.	.	.	.	4e\	.	.	.	.	.
=12-	=12-	=12-	=12-	=12-	=12-	=12-	=12-	=12-	=12-	=12-
1ryy	.	.	.	.	1d	.	.	.	1dd	me-
.	.	.	.	.	.	.	8b\	.	.	.
.	.	.	.	.	.	.	8a\	.	.	.
.	.	.	.	.	.	.	2b\	.	.	.
=13-	=13-	=13-	=13-	=13-	=13-	=13-	=13-	=13-	=13-	=13-
1ryy	2r	.	00	.	1c	-bus	2cc\	bus	2ee\	-a
.	2c\	Ve-	.	.	.	.	2g\	eſt	2ee\	ve-
*	*	*	*	*	*	*	*custos:g	*	*	*
!	!	!	!	!	!	!	!LO:LB:g=original	!	!	!
=14-	=14-	=14-	=14-	=14-	=14-	=14-	=14-	=14-	=14-	=14-
1ryy	2B\	-re	.	.	2r	.	1g	ci-	2dd\	-re
.	2G\	eſt	.	.	1e\	Ca-	.	.	2b/	eſt
=15-	=15-	=15-	=15-	=15-	=15-	=15-	=15-	=15-	=15-	=15-
1ryy	2.A\	ci-	.	.	.	.	1e	-bus	2.cc\	ci-
.	.	.	.	.	2c/	-ro	.	.	.	.
.	4G\	.	.	.	.	.	.	.	4b/	.
=16-	=16-	=16-	=16-	=16-	=16-	=16-	=16-	=16-	=16-	=16-
1ryy	1F	.	.	.	1d	me-	1r	.	1a	.
=17-	=17-	=17-	=17-	=17-	=17-	=17-	=17-	=17-	=17-	=17-
1ryy	2E/	-bus	0e	CA-	2e\	-a	2r	.	2g/	-bus
*	*	*ij	*	*	*	*	*	*	*	*
.	2A\	Ve-	.	.	2c/	ve-	2cc\	ve-	2a/	ve-
=18-	=18-	=18-	=18-	=18-	=18-	=18-	=18-	=18-	=18-	=18-
1ryy	2G\	-re	.	.	1g	-re	2b\	-re	4b/	-re
.	.	.	.	.	.	.	.	.	4g/	eſt
.	2E/	eſt	.	.	.	.	2g\	eſt	1cc\	ci-
=19-	=19-	=19-	=19-	=19-	=19-	=19-	=19-	=19-	=19-	=19-
1ryy	2.F/	ci-	1c	-ro	2f\	eſt	2.a\	ci-	.	.
*	*	*	*	*	*custos:c	*	*	*	*	*
!	!	!	!	!	!LO:LB:g=original	!	!	!	!	!
.	.	.	.	.	2.c/	ci-	.	.	2a/	-bus
.	4E/	.	.	.	.	.	4g\	.	.	.
*	*	*	*	*	*	*	*	*	*	*
=20-	=20-	=20-	=20-	=20-	=20-	=20-	=20-	=20-	=20-	=20-
1ryy	1D	.	1d	me-	.	.	1f	.	1r	.
.	.	.	.	.	8B/	.	.	.	.	.
.	.	.	.	.	8A/	.	.	.	.	.
.	.	.	.	.	2B/	.	.	.	.	.
*	*custos:C	*	*	*	*	*	*	*	*custos:ee	*
!	!LO:LB:g=original	!	!	!	!	!	!	!	!LO:LB:g=original	!
=21-	=21-	=21-	=21-	=21-	=21-	=21-	=21-	=21-	=21-	=21-
1ryy	1C	-bus	2e\	-a	1c	-bus	2e/	-bus	0ee	Ca-
*	*	*Xij	*	*	*	*	*	*ij	*	*
.	.	.	2a\	ve-	.	.	2cc\	ve-	.	.
=22-	=22-	=22-	=22-	=22-	=22-	=22-	=22-	=22-	=22-	=22-
1ryy	1r	.	2g\	-re	1r	.	2b\	-re	.	.
.	.	.	2e\	eſt	.	.	2g\	eſt	.	.
=23-	=23-	=23-	=23-	=23-	=23-	=23-	=23-	=23-	=23-	=23-
1ryy	0r	.	2.f\	ci-	0r	.	4a\	ci-	1cc	-ro
.	.	.	.	.	.	.	4b\	.	.	.
.	.	.	.	.	.	.	2.cc\	.	.	.
.	.	.	4e\	.	.	.	.	.	.	.
=24-	=24-	=24-	=24-	=24-	=24-	=24-	=24-	=24-	=24-	=24-
1ryy	.	.	1d	.	.	.	.	.	1dd	me-
.	.	.	.	.	.	.	4b\	.	.	.
.	.	.	.	.	.	.	2b\	.	.	.
=25-	=25-	=25-	=25-	=25-	=25-	=25-	=25-	=25-	=25-	=25-
1ryy	0A	Ca-	1c	-bus	00r	.	2cc\	-bus	2ee\	-a
*	*	*	*	*	*	*	*	*Xij	*	*
.	.	.	.	.	.	.	2.cc\	Ca-	2ff\	ve-
=26-	=26-	=26-	=26-	=26-	=26-	=26-	=26-	=26-	=26-	=26-
1ryy	.	.	2r	.	.	.	.	.	2ee\	-re
.	.	.	.	.	.	.	4b\	.	.	.
.	.	.	2e\	ve-	.	.	4a\	.	2cc\	eſt
.	.	.	.	.	.	.	4g\	.	.	.
*	*	*	*	*	*	*	*custos:a	*	*	*
!	!	!	!	!	!	!	!LO:LB:g=original	!	!	!
=27-	=27-	=27-	=27-	=27-	=27-	=27-	=27-	=27-	=27-	=27-
*	*	*	*	*	*	*	*lig	*	*	*
1ryy	1F	-ro	2.f\	-re	.	.	1a	.	2dd\	ci-
.	.	.	.	.	.	.	.	.	1cc\	.
.	.	.	4e\	.	.	.	.	.	.	.
*	*	*	*custos:d	*	*	*	*	*	*	*
!	!	!	!LO:LB:g=original	!	!	!	!	!	!	!
=28-	=28-	=28-	=28-	=28-	=28-	=28-	=28-	=28-	=28-	=28-
1ryy	1G	me-	2d\	.	.	.	1g	.	.	.
.	.	.	2.e\	eſt	.	.	.	.	2b/	.
*	*	*	*	*	*	*	*Xlig	*	*	*
=29-	=29-	=29-	=29-	=29-	=29-	=29-	=29-	=29-	=29-	=29-
1ryy	1A	-a	.	.	2r	.	2e/	-ro	0cc	-bus
.	.	.	4d\	.	.	.	.	.	.	.
.	.	.	4c/	.	2f\	ve-	2a\	me-	.	.
.	.	.	4B/	.	.	.	.	.	.	.
=30-	=30-	=30-	=30-	=30-	=30-	=30-	=30-	=30-	=30-	=30-
1ryy	2r	.	4c/	.	2e\	-re	2g\	-a	.	.
.	.	.	4d\	.	.	.	.	.	.	.
.	2A\	ve-	4e\	.	2c/	eſt	2a\	ve-	.	.
.	.	.	4f\	.	.	.	.	.	.	.
=31-	=31-	=31-	=31-	=31-	=31-	=31-	=31-	=31-	=31-	=31-
1ryy	2G\	-re	1g	.	2d\	ci-	2b\	-re	00r	.
.	2E/	eſt	.	.	2e\	.	2cc\	eſt	.	.
=32-	=32-	=32-	=32-	=32-	=32-	=32-	=32-	=32-	=32-	=32-
1ryy	2.F/	ci-	2.f\	ci-	4d\	.	2.a\	ci-	.	.
.	.	.	.	.	4c/	.	.	.	.	.
.	.	.	.	.	2.c/	.	.	.	.	.
.	4E/	.	4g\	.	.	.	4g\	.	.	.
=33-	=33-	=33-	=33-	=33-	=33-	=33-	=33-	=33-	=33-	=33-
1ryy	1D	.	2a\	.	.	.	1f	.	.	.
.	.	.	.	.	8B/	.	.	.	.	.
.	.	.	.	.	8A/	.	.	.	.	.
.	.	.	2d\	-bus	2B/	.	.	.	.	.
=34-	=34-	=34-	=34-	=34-	=34-	=34-	=34-	=34-	=34-	=34-
*	*	*	*	*ij	*	*	*	*	*	*
1ryy	0C	-bus	1g	ve-	2c/	-bus	0e	bus	.	.
.	.	.	.	.	2c/	[et]	.	.	.	.
=35-	=35-	=35-	=35-	=35-	=35-	=35-	=35-	=35-	=35-	=35-
1ryy	.	.	2c/	-re	2g\	ſan-	.	.	2r	.
.	.	.	2e\	eſt	2g\	-guis	.	.	2g/	[et]
*	*	*	*	*	*custos:a	*	*	*	*	*
!	!	!	!	!	!LO:LB:g=original	!	!	!	!	!
=36-	=36-	=36-	=36-	=36-	=36-	=36-	=36-	=36-	=36-	=36-
1ryy	1r	.	1f	ci-	1a	me-	1r	.	2cc\	ſan-
.	.	.	.	.	.	.	.	.	2cc\	-guis
=37-	=37-	=37-	=37-	=37-	=37-	=37-	=37-	=37-	=37-	=37-
1ryy	00r	.	1e	-bus	1g	-us	2r	.	1ee	me-
.	.	.	.	.	.	.	2c/	[et]	.	.
=38-	=38-	=38-	=38-	=38-	=38-	=38-	=38-	=38-	=38-	=38-
1ryy	.	.	1r	.	2r	.	2g\	ſan-	2dd\	-us
.	.	.	.	.	2G/	[et]	2g\	-guis	1gg\	ve-
=39-	=39-	=39-	=39-	=39-	=39-	=39-	=39-	=39-	=39-	=39-
1ryy	.	.	0r	.	2d\	ſan-	1a	me-	.	.
.	.	.	.	.	2d\	-guis	.	.	2ff\	-re
*	*	*	*	*	*	*	*	*	*custos:ee	*
!	!	!	!	!	!	!	!	!	!LO:LB:g=original	!
=40-	=40-	=40-	=40-	=40-	=40-	=40-	=40-	=40-	=40-	=40-
1ryy	.	.	.	.	1e	me-	2g\	-us	1ee	eſt
.	.	.	.	.	.	.	1cc\	ve-	.	.
*	*	*	*custos:G	*Xij	*	*ij	*	*	*	*
!	!	!	!LO:LB:g=original	!	!	!	!	!	!	!
=41-	=41-	=41-	=41-	=41-	=41-	=41-	=41-	=41-	=41-	=41-
1ryy	00r	.	2r	.	2f#X\	-us	.	.	1dd	po-
*	*	*	*	*	*	*Xij	*	*	*	*
.	.	.	2G/	[et]	2.g\	ve-	2b\	-re	.	.
=42-	=42-	=42-	=42-	=42-	=42-	=42-	=42-	=42-	=42-	=42-
1ryy	.	.	2c/	ſan-	.	.	2g\	eſt	1ee	-tus
.	.	.	.	.	4e\	-re	.	.	.	.
.	.	.	2c/	-guis	1a\	eſt	2.cc\	po-	.	.
=43-	=43-	=43-	=43-	=43-	=43-	=43-	=43-	=43-	=43-	=43-
1ryy	.	.	1e	me-	.	.	.	.	2r	.
.	.	.	.	.	.	.	4b\	.	.	.
.	.	.	.	.	2.g\	po-	4b\	.	2g/	et
.	.	.	.	.	.	.	8a\	.	.	.
.	.	.	.	.	.	.	8g\	.	.	.
=44-	=44-	=44-	=44-	=44-	=44-	=44-	=44-	=44-	=44-	=44-
1ryy	.	.	1d	-us	.	.	1a	.	2dd\	ſan-
.	.	.	.	.	8f#X\	.	.	.	.	.
.	.	.	.	.	8e\	.	.	.	.	.
.	.	.	.	.	2f#X\	.	.	.	2dd\	-guis
=45-	=45-	=45-	=45-	=45-	=45-	=45-	=45-	=45-	=45-	=45-
1ryy	1C	[et]	1r	.	0g	-tus	2g\	-tus	1ee	me-
*	*	*	*	*	*	*	*custos:cc	*	*	*
!	!	!	!	!	!	!	!LO:LB:g=original	!	!	!
.	.	.	.	.	.	.	2.cc\	ve-	.	.
*	*custos:G	*	*	*	*	*	*	*	*	*
!	!LO:LB:g=original	!	!	!	!	!	!	!	!	!
=46-	=46-	=46-	=46-	=46-	=46-	=46-	=46-	=46-	=46-	=46-
1ryy	2G\	ſan-	2r	.	.	.	.	.	1dd	-us
.	.	.	.	.	.	.	8b\	.	.	.
.	.	.	.	.	.	.	8a\	.	.	.
.	2G\	-guis	1g\	ve-	.	.	2b\	.	.	.
=47-	=47-	=47-	=47-	=47-	=47-	=47-	=47-	=47-	=47-	=47-
1ryy	1A	me-	.	.	2r	.	2cc\	-re	1r	.
.	.	.	2f\	-re	2c/	[et]	2a\	eſt	.	.
=48-	=48-	=48-	=48-	=48-	=48-	=48-	=48-	=48-	=48-	=48-
1ryy	2G\	-us	2.e\	eſt	2g\	ſan-	2b\	po-	2r	.
*	*	*	*	*	*	*	*	*	*	*ij
.	2c\	ve-	.	.	2g\	-guis	2cc\	-tus	2g/	et
.	.	.	8d\	.	.	.	.	.	.	.
.	.	.	8c\	.	.	.	.	.	.	.
=49-	=49-	=49-	=49-	=49-	=49-	=49-	=49-	=49-	=49-	=49-
1ryy	2A\	-re	2e\	po-	1a	me-	1r	.	2cc\	ſan-
.	2F/	eſt	2f\	.	.	.	.	.	2cc\	-guis
=50-	=50-	=50-	=50-	=50-	=50-	=50-	=50-	=50-	=50-	=50-
*	*lig	*	*	*	*	*	*	*	*	*
1ryy	1c	po-	2e\	-tus	1g	-us	2r	.	1ee	me-
*	*col	*	*	*ij	*	*	*	*	*	*
.	.	.	1c\	ve-	.	.	2c/	[et]	.	.
=51-	=51-	=51-	=51-	=51-	=51-	=51-	=51-	=51-	=51-	=51-
1ryy	3%2G	.	.	.	2r	.	1g	ſan-	1dd	-us
*	*	*	*	*	*	*ij	*	*	*	*
.	.	.	2B/	-re	2G/	[et]	.	.	.	.
*	*Xlig	*	*	*	*	*	*	*	*	*Xij
.	3F/	.	.	.	.	.	.	.	.	.
*	*Xcol	*	*	*	*	*	*	*	*	*
=52-	=52-	=52-	=52-	=52-	=52-	=52-	=52-	=52-	=52-	=52-
1ryy	2E/	.	2c/	eſt	2c/	ſan-	2g\	-guis	2ee\	ve-
.	2F/	.	2A/	po-	2c/	-guis	2.a\	me-	2.cc\	-re
=53-	=53-	=53-	=53-	=53-	=53-	=53-	=53-	=53-	=53-	=53-
1ryy	1C	-tus	1c	-tus	1e	me-	.	.	.	.
.	.	.	.	.	.	.	4g\	.	8b/	.
.	.	.	.	.	.	.	.	.	8a/	.
.	.	.	.	.	.	.	2.g\	.	2g/	.
=54-	=54-	=54-	=54-	=54-	=54-	=54-	=54-	=54-	=54-	=54-
1ryy	1r	.	0r	.	1d	-us	.	.	1a	eſt
.	.	.	.	.	.	.	4f#X\	.	.	.
.	.	.	.	.	.	.	2f#\	.	.	.
*	*	*	*	*Xij	*custos:e	*Xij	*	*	*	*
!	!	!	!	!	!LO:LB:g=original	!	!	!	!	!
=55-	=55-	=55-	=55-	=55-	=55-	=55-	=55-	=55-	=55-	=55-
1ryy	2r	.	.	.	1e	ve-	0g	us	2g/	po
.	2C/	[et]	.	.	.	.	.	.	2.cc\	.
=56-	=56-	=56-	=56-	=56-	=56-	=56-	=56-	=56-	=56-	=56-
1ryy	2G\	ſan-	2r	.	2d\	-re	.	.	.	.
.	.	.	.	.	.	.	.	.	4b/	.
.	2G\	-guis	2G/	[et]	1e\	eſt	.	.	2b/	.
=57-	=57-	=57-	=57-	=57-	=57-	=57-	=57-	=57-	=57-	=57-
1ryy	1A	me-	2c/	ſan-	.	.	2r	.	1cc	tus
*	*	*	*	*	*	*	*	*ij	*	*
.	.	.	2c/	-guis	4d\	.	2c/	[et]	.	.
.	.	.	.	.	4c/	.	.	.	.	.
*	*	*	*	*	*	*	*	*	*custos:g	*
!	!	!	!	!	!	!	!	!	!LO:LB:g=original	!
=58-	=58-	=58-	=58-	=58-	=58-	=58-	=58-	=58-	=58-	=58-
1ryy	2G\	-us	1e	me-	2B/	.	2g\	ſan-	2r	.
.	2E/	ve-	.	.	1c\	po-	2g\	-guis	2g/	[et]
=59-	=59-	=59-	=59-	=59-	=59-	=59-	=59-	=59-	=59-	=59-
1ryy	2F/	-re	1d	-us	.	.	2a\	me-	2dd\	ſan-
.	2G\	eſt	.	.	2B/	.	1g\	-us	2dd\	-guis
*	*	*	*custos:g	*	*	*	*	*Xij	*	*
!	!	!	!LO:LB:g=original	!	!	!	!	!	!	!
=60-	=60-	=60-	=60-	=60-	=60-	=60-	=60-	=60-	=60-	=60-
1ryy	1C	po-	2r	.	1c	-tus	.	.	1ee	me-
.	.	.	1g\	ve-	.	.	2cc\	ve-	.	.
=61-	=61-	=61-	=61-	=61-	=61-	=61-	=61-	=61-	=61-	=61-
1ryy	1D	-tus	.	.	1r	.	2b\	-re	2dd\	-us
.	.	.	2f\	-re	.	.	2a\	eſt	1dd\	ve-
*	*custos:C	*	*	*	*	*	*	*	*	*
!	!LO:LB:g=original	!	!	!	!	!	!	!	!	!
=62-	=62-	=62-	=62-	=62-	=62-	=62-	=62-	=62-	=62-	=62-
1ryy	2r	.	1e	eſt	2r	.	2g\	po-	.	.
*	*	*	*	*	*	*ij	*	*	*	*
.	2C/	[et]	.	.	1g\	ve-	2e/	-tus	2cc\	-re
*	*	*	*	*	*	*	*	*	*	*
=63-	=63-	=63-	=63-	=63-	=63-	=63-	=63-	=63-	=63-	=63-
1ryy	2D/	ſan-	2.d\	po	.	.	1r	.	2b/	eſt
.	2D/	-guis	.	.	2fny\	-re	.	.	2.a/	po-
.	.	.	4c/	.	.	.	.	.	.	.
=64-	=64-	=64-	=64-	=64-	=64-	=64-	=64-	=64-	=64-	=64-
1ryy	1E	me-	2B/	.	2e\	eſt	0r	.	.	.
.	.	.	.	.	.	.	.	.	4g/	.
.	.	.	4A/	.	2c/	po-	.	.	1g/	.
.	.	.	4G/	.	.	.	.	.	.	.
=65-	=65-	=65-	=65-	=65-	=65-	=65-	=65-	=65-	=65-	=65-
1ryy	1D	-us	1A	.	1d	-tus	.	.	.	.
.	.	.	.	.	.	.	.	.	2f#X/	.
*	*	*	*	*	*	*Xij	*custos:e	*	*	*
!	!	!	!	!	!	!	!LO:LB:g=original	!	!	!
=66-	=66-	=66-	=66-	=66-	=66-	=66-	=66-	=66-	=66-	=66-
1ryy	2r	.	4G/	.	2.d\	ve-	2r	.	1g	-tus
.	.	.	4A/	.	.	.	.	.	.	.
.	1G\	ve-	4B/	.	.	.	1g\	ve-	.	.
.	.	.	4c/	.	4c/	.	.	.	.	.
=67-	=67-	=67-	=67-	=67-	=67-	=67-	=67-	=67-	=67-	=67-
1ryy	.	.	1d	.	2B/	.	.	.	0r	.
.	2F/	-re	.	.	2A/	-re	2a\	-re	.	.
=68-	=68-	=68-	=68-	=68-	=68-	=68-	=68-	=68-	=68-	=68-
1ryy	2E/	eſt	2e\	.	2B/	eſt	2g\	eſt	.	.
.	4F/	po-	2.c/	.	4A/	po-	2fny\	po-	.	.
.	4G\	.	.	.	4B/	.	.	.	.	.
=69-	=69-	=69-	=69-	=69-	=69-	=69-	=69-	=69-	=69-	=69-
1ryy	4A\	.	.	.	4c/	.	1e	-tus	1r	.
.	4B\	.	4B/	.	4d\	.	.	.	.	.
.	1c\	.	2A/	.	4e\	.	.	.	.	.
.	.	.	.	.	4c/	.	.	.	.	.
=70-	=70-	=70-	=70-	=70-	=70-	=70-	=70-	=70-	=70-	=70-
*	*	*	*	*	*lig	*	*	*	*	*
1ryy	.	.	1G	tus	1d	.	2r	.	1g	Qui
.	2B\	.	.	.	.	.	2g\	Qui	.	.
=71-	=71-	=71-	=71-	=71-	=71-	=71-	=71-	=71-	=71-	=71-
1ryy	1A	.	0r	.	1c	.	2f\	man-	2a/	man-
.	.	.	.	.	.	.	1e\	-du-	1cc\	-du-
*	*	*	*	*	*Xlig	*	*	*	*	*
=72-	=72-	=72-	=72-	=72-	=72-	=72-	=72-	=72-	=72-	=72-
1ryy	1G	-tus	.	.	1g	-tus	.	.	.	.
.	.	.	.	.	.	.	2d/	-cat	2b/	-cat
=73-	=73-	=73-	=73-	=73-	=73-	=73-	=73-	=73-	=73-	=73-
1ryy	1r	.	1r	.	00r	.	2e/	me-	2cc\	me-
.	.	.	.	.	.	.	2f\	-am	2a/	-am
=74-	=74-	=74-	=74-	=74-	=74-	=74-	=74-	=74-	=74-	=74-
1ryy	1G	Qui	2r	.	.	.	1d	car-	1b	car-
.	.	.	2g\	Qui	.	.	.	.	.	.
=75-	=75-	=75-	=75-	=75-	=75-	=75-	=75-	=75-	=75-	=75-
1ryy	2A\	man-	2f\	man-	.	.	1c	-nẽ(m)	1cc	-nem
.	1c\	-du-	1e\	-du-	.	.	.	.	.	.
=76-	=76-	=76-	=76-	=76-	=76-	=76-	=76-	=76-	=76-	=76-
1ryy	.	.	.	.	.	.	1g	me-	0r	.
.	2B\	-cat	2d\	-cat	.	.	.	.	.	.
*	*	*	*	*	*custos:G	*	*	*	*	*
!	!	!	!	!	!LO:LB:g=original	!	!	!	!	!
=77-	=77-	=77-	=77-	=77-	=77-	=77-	=77-	=77-	=77-	=77-
1ryy	2c\	me-	2e\	me-	1r	.	2g\	-am	.	.
.	2A\	-am	2f\	-am	.	.	2a\	cae-	.	.
*	*custos:B	*	*custos:d	*	*	*	*	*	*	*
!	!LO:LB:g=original	!	!LO:LB:g=original	!	!	!	!	!	!	!
=78-	=78-	=78-	=78-	=78-	=78-	=78-	=78-	=78-	=78-	=78-
*	*	*	*lig	*	*	*	*	*	*	*
1ryy	1B	car-	1d	car-	1G	Qui	1g	-nẽ(m)	2r	.
.	.	.	.	.	.	.	.	.	2gg\	Qui
*	*	*	*	*	*	*	*	*	*custos:ff	*
!	!	!	!	!	!	!	!	!	!LO:LB:g=original	!
=79-	=79-	=79-	=79-	=79-	=79-	=79-	=79-	=79-	=79-	=79-
1ryy	2c\	-nem	1c	.	2A/	man-	2r	.	2ff\	man-
*	*	*ij	*	*	*	*	*	*	*	*
.	2C/	Qui	.	.	1c\	-du-	1g\	Qui	1ee\	-du-
*	*	*	*Xlig	*	*	*	*	*	*	*
=80-	=80-	=80-	=80-	=80-	=80-	=80-	=80-	=80-	=80-	=80-
1ryy	2E/	man-	1G	-nem	.	.	.	.	.	.
.	1G\	-du-	.	.	2B/	-cat	2g\	man-	2dd\	-cat
=81-	=81-	=81-	=81-	=81-	=81-	=81-	=81-	=81-	=81-	=81-
1ryy	.	.	1r	.	2c/	me-	2g\	-du-	2ee\	car-
.	2F/	-cat	.	.	2A/	-am	2a\	-cat	1dd\	.
=82-	=82-	=82-	=82-	=82-	=82-	=82-	=82-	=82-	=82-	=82-
*	*	*	*	*	*lig	*	*	*	*	*
1ryy	2G\	me-	0r	.	1B	car-	2.g\	me-	.	.
.	2E/	-am	.	.	.	.	.	.	2.ee\	.
.	.	.	.	.	.	.	4f\	.	.	.
=83-	=83-	=83-	=83-	=83-	=83-	=83-	=83-	=83-	=83-	=83-
1ryy	1A	car-	.	.	1c	.	2e/	.	.	.
.	.	.	.	.	.	.	.	.	4dd\	.
.	.	.	.	.	.	.	2f\	-am	1cc\	.
*	*	*	*	*	*Xlig	*	*	*	*	*
=84-	=84-	=84-	=84-	=84-	=84-	=84-	=84-	=84-	=84-	=84-
1ryy	1G	-nem	2r	.	1d	nem	1g	car-	.	.
.	.	.	2G/	[et]	.	.	.	.	2b/	.
*	*	*Xij	*	*	*	*	*custos:g	*	*	*
!	!	!	!	!	!	!	!LO:LB:g=original	!	!	!
=85-	=85-	=85-	=85-	=85-	=85-	=85-	=85-	=85-	=85-	=85-
1ryy	1r	.	4c/	bi-	2r	.	1g	-nem	00cc	nem
.	.	.	4d\	.	.	.	.	.	.	.
.	.	.	4e\	.	2c/	[et]	.	.	.	.
.	.	.	4f\	.	.	.	.	.	.	.
=86-	=86-	=86-	=86-	=86-	=86-	=86-	=86-	=86-	=86-	=86-
1ryy	2r	.	2g\	.	4e\	bi-	2r	.	.	.
.	.	.	.	.	4d\	.	.	.	.	.
.	2C/	[et]	2e\	-bit	4c/	.	2g\	[et]	.	.
.	.	.	.	.	4B/	.	.	.	.	.
=87-	=87-	=87-	=87-	=87-	=87-	=87-	=87-	=87-	=87-	=87-
1ryy	4F/	bi-	2f\	me-	4A/	.	1a	bi-	.	.
.	4G\	.	.	.	4B/	.	.	.	.	.
.	4A\	.	4e\	.	2.c/	.	.	.	.	.
.	4B\	.	4d\	.	.	.	.	.	.	.
=88-	=88-	=88-	=88-	=88-	=88-	=88-	=88-	=88-	=88-	=88-
1ryy	2c\	.	2e\	.	.	.	2g\	-bit	.	.
.	.	.	.	.	4d\	.	.	.	.	.
.	2A\	bit	1a\	-um	4e\	.	2c/	[et]	.	.
.	.	.	.	.	4c/	.	.	.	.	.
=89-	=89-	=89-	=89-	=89-	=89-	=89-	=89-	=89-	=89-	=89-
1ryy	2d\	me-	.	.	4d\	.	4f\	bi-	1r	.
.	.	.	.	.	4e\	.	4g\	.	.	.
.	2d\	-um	1f\	ſan-	4f\	.	4a\	.	.	.
.	.	.	.	.	4g\	.	4b\	.	.	.
=90-	=90-	=90-	=90-	=90-	=90-	=90-	=90-	=90-	=90-	=90-
1ryy	2.c\	ſan-	.	.	2a\	.	2.cc\	.	2r	.
.	.	.	4e\	.	2g\	-bit	.	.	2g/	[et]
.	4B\	.	4d\	.	.	.	4g\	.	.	.
=91-	=91-	=91-	=91-	=91-	=91-	=91-	=91-	=91-	=91-	=91-
1ryy	2A\	.	2c/	.	1r	.	4a\	.	4cc\	bi-
.	.	.	.	.	.	.	4b\	.	4dd\	.
.	2A\	-gui-	2c/	-gui-	.	.	4cc\	.	4ee\	.
.	.	.	.	.	.	.	4a\	.	4ff\	.
*	*custos:G	*	*	*	*	*ij	*	*	*	*
!	!LO:LB:g=original	!	!	!	!	!	!	!	!	!
=92-	=92-	=92-	=92-	=92-	=92-	=92-	=92-	=92-	=92-	=92-
1ryy	1G	-nem	2d\	-nem	2r	.	2b\	.	2gg\	.
.	.	.	2g\	[et]	2G/	[et]	2b\	-bit	2dd\	bit
*	*	*	*	*	*custos:c	*	*	*	*	*
!	!	!	!	!	!LO:LB:g=original	!	!	!	!	!
=93-	=93-	=93-	=93-	=93-	=93-	=93-	=93-	=93-	=93-	=93-
1ryy	1r	.	2.g\	bi-	4c/	bi-	2cc\	me-	1.ee	me-
.	.	.	.	.	4d\	.	.	.	.	.
.	.	.	.	.	4e\	.	4b\	.	.	.
.	.	.	4f\	.	4f\	.	4a\	.	.	.
=94-	=94-	=94-	=94-	=94-	=94-	=94-	=94-	=94-	=94-	=94-
1ryy	2r	.	4e\	.	2g\	.	2b\	.	.	.
.	.	.	4d\	.	.	.	.	.	.	.
.	2C/	[et]	4c\	.	2e\	bit	2cc\	-um	2ee\	-um
.	.	.	4B/	.	.	.	.	.	.	.
*	*	*	*custos:A	*	*	*Xij	*	*	*	*
!	!	!	!LO:LB:g=original	!	!	!	!	!	!	!
=95-	=95-	=95-	=95-	=95-	=95-	=95-	=95-	=95-	=95-	=95-
1ryy	4F/	bi-	2A/	.	2a\	me-	0cc	ſan-	2.ff\	ſan-
.	4G\	.	.	.	.	.	.	.	.	.
.	4A\	.	2F/	-bit	2a\	-um	.	.	.	.
.	4B\	.	.	.	.	.	.	.	4ff\	-gui-
=96-	=96-	=96-	=96-	=96-	=96-	=96-	=96-	=96-	=96-	=96-
1ryy	2c\	.	2r	.	2.g\	ſan-	.	.	1ee	-nem
.	2C/	-bit	2c/	[et]	.	.	.	.	.	.
.	.	.	.	.	4g\	-gui-	.	.	.	.
*	*	*	*	*	*	*	*	*	*	*
=97-	=97-	=97-	=97-	=97-	=97-	=97-	=97-	=97-	=97-	=97-
1ryy	2G\	me-	2d\	bi-	2g\	-nem	1b	-gu-	00r	.
*	*	*	*	*	*	*ij	*	*	*	*
.	2G\	-um	2e\	-bit	2g\	[et]	.	.	.	.
=98-	=98-	=98-	=98-	=98-	=98-	=98-	=98-	=98-	=98-	=98-
1ryy	2.F/	ſan-	2f\	me-	2c/	bi-	2.a\	-i-	.	.
.	.	.	2c/	-um	1c/	-bit	.	.	.	.
.	4E/	.	.	.	.	.	4g\	.	.	.
=99-	=99-	=99-	=99-	=99-	=99-	=99-	=99-	=99-	=99-	=99-
1ryy	1.D	.	1.d	ſan-	.	.	0f	-nem	.	.
.	.	.	.	.	4B/	me-	.	.	.	.
.	.	.	.	.	4A/	-um	.	.	.	.
=100-	=100-	=100-	=100-	=100-	=100-	=100-	=100-	=100-	=100-	=100-
1ryy	.	.	.	.	2B/	ſan-	.	.	.	.
.	2D/	-gui-	2d\	-gui-	2B/	-gui-	.	.	.	.
*	*	*	*	*	*	*	*	*	*custos:cc	*
!	!	!	!	!	!	!	!	!	!LO:LB:g=original	!
=101-	=101-	=101-	=101-	=101-	=101-	=101-	=101-	=101-	=101-	=101-
1ryy	1C	-nem	1g	-nem	1c	-nem	2r	.	2.cc\	In
.	.	.	.	.	.	.	2.e/	In	.	.
.	.	.	.	.	.	.	.	.	4cc\	me
=102-	=102-	=102-	=102-	=102-	=102-	=102-	=102-	=102-	=102-	=102-
1ryy	1r	.	1r	.	1r	.	.	.	2b/	ma-
.	.	.	.	.	.	.	4e/	me	.	.
.	.	.	.	.	.	.	2f\	ma-	2a/	-net
*	*	*	*	*	*	*Xij	*custos:g	*	*	*
!	!	!	!	!	!	!	!LO:LB:g=original	!	!	!
=103-	=103-	=103-	=103-	=103-	=103-	=103-	=103-	=103-	=103-	=103-
1ryy	00r	.	00r	.	0r	.	2g\	-net	2b/	[et]
.	.	.	.	.	.	.	1f\	[et]	2cc\	e-
=104-	=104-	=104-	=104-	=104-	=104-	=104-	=104-	=104-	=104-	=104-
1ryy	.	.	.	.	.	.	.	.	2dd\	-go
.	.	.	.	.	.	.	4e/	.	2dd\	in
.	.	.	.	.	.	.	4d/	.	.	.
=105-	=105-	=105-	=105-	=105-	=105-	=105-	=105-	=105-	=105-	=105-
1ryy	.	.	.	.	2.e\	In	2c/	e-	1ee	e-
.	.	.	.	.	.	.	1cc\	.	.	.
.	.	.	.	.	4e\	me-	.	.	.	.
=106-	=106-	=106-	=106-	=106-	=106-	=106-	=106-	=106-	=106-	=106-
1ryy	.	.	.	.	2f\	-ma-	.	.	1dd	-o
.	.	.	.	.	1g\	-net	4b\	.	.	.
.	.	.	.	.	.	.	4a\	.	.	.
=107-	=107-	=107-	=107-	=107-	=107-	=107-	=107-	=107-	=107-	=107-
1ryy	2.E/	In	0r	.	.	.	2b\	.	0r	.
.	.	.	.	.	2e\	[et]	1cc\	-go	.	.
.	4E/	me	.	.	.	.	.	.	.	.
=108-	=108-	=108-	=108-	=108-	=108-	=108-	=108-	=108-	=108-	=108-
1ryy	2F/	ma-	.	.	2.d\	e-	.	.	.	.
.	2G\	-net	.	.	.	.	2b\	in	.	.
.	.	.	.	.	4e\	.	.	.	.	.
*	*	*	*	*	*custos:f	*	*	*	*	*ij
!	!	!	!	!	!LO:LB:g=original	!	!	!	!	!
=109-	=109-	=109-	=109-	=109-	=109-	=109-	=109-	=109-	=109-	=109-
1ryy	2F/	[et]	2.c/	In	2f\	.	2a\	e-	1r	.
.	1E/	e-	.	.	1g\	-go	2g\	-o	.	.
.	.	.	4c/	me	.	.	.	.	.	.
*	*custos:F	*	*	*	*	*	*	*	*	*
!	!LO:LB:g=original	!	!	!	!	!	!	!	!	!
=110-	=110-	=110-	=110-	=110-	=110-	=110-	=110-	=110-	=110-	=110-
1ryy	.	.	2B/	ma-	.	.	1r	.	2r	.
.	2F/	-go	2A/	-net	2c/	in	.	.	2.ff\	In
=111-	=111-	=111-	=111-	=111-	=111-	=111-	=111-	=111-	=111-	=111-
1ryy	2D/	in	2B/	[et]	2d\	e-	2r	.	.	.
.	.	.	.	.	.	.	.	.	4ff\	me
.	4C/	e-	2c/	e-	2G/	-o	2.cc\	In	1ee\	ma-
.	4D/	.	.	.	.	.	.	.	.	.
=112-	=112-	=112-	=112-	=112-	=112-	=112-	=112-	=112-	=112-	=112-
1ryy	4E/	.	1G	-go	1r	.	.	.	.	.
.	4F/	.	.	.	.	.	4cc\	me	.	.
.	2G\	.	.	.	.	.	2b\	ma-	2dd\	-net
=113-	=113-	=113-	=113-	=113-	=113-	=113-	=113-	=113-	=113-	=113-
*	*lig	*	*	*	*	*	*	*	*	*
1ryy	1C	-o	2r	.	2.c/	In	2a\	-net	2cc\	[et]
.	.	.	2G/	in	.	.	1g\	[et]	2ee\	e-
.	.	.	.	.	4c/	me	.	.	.	.
=114-	=114-	=114-	=114-	=114-	=114-	=114-	=114-	=114-	=114-	=114-
1ryy	1D	.	1d	e-	2B/	ma-	.	.	2dd\	-go-
.	.	.	.	.	2A/	-net	2f#X\	e-	2dd\	-in
*	*Xlig	*	*	*	*	*	*	*	*	*
=115-	=115-	=115-	=115-	=115-	=115-	=115-	=115-	=115-	=115-	=115-
1ryy	0r	.	2d\	-o	2G/	[et]	2.g\	-go	2b/	e-
.	.	.	2.e\	In	1c\	e-	.	.	2g/	-o
.	.	.	.	.	.	.	4fny\	.	.	.
*	*	*	*	*	*	*	*	*	*	*Xij
=116-	=116-	=116-	=116-	=116-	=116-	=116-	=116-	=116-	=116-	=116-
1ryy	.	.	.	.	.	.	2e/	.	2.cc\	In
.	.	.	4e\	me	.	.	.	.	.	.
*	*	*	*custos:f	*	*	*	*	*	*	*
!	!	!	!LO:LB:g=original	!	!	!	!	!	!	!
.	.	.	2f\	ma-	2A/	-go	4d/	.	.	.
.	.	.	.	.	.	.	4c/	.	4cc\	me
=117-	=117-	=117-	=117-	=117-	=117-	=117-	=117-	=117-	=117-	=117-
1ryy	1r	.	2g\	-net	2G/	[et]	1d	.	2b/	ma-
.	.	.	2f#X\	[et]	2d\	e-	.	.	2a/	-net
*	*	*ij	*	*	*	*	*	*	*custos:b	*
!	!	!	!	!	!	!	!	!	!LO:LB:g=original	!
=118-	=118-	=118-	=118-	=118-	=118-	=118-	=118-	=118-	=118-	=118-
1ryy	2r	.	2g\	e-	2G/	-go	2d/	in	2b/	[et]
.	2.c\	In	2e\	-go	2A/	in	1a\	e-	2cc\	e-
=119-	=119-	=119-	=119-	=119-	=119-	=119-	=119-	=119-	=119-	=119-
1ryy	.	.	2fny\	in	2F/	e-	.	.	2dd\	-go
.	4c\	me	.	.	.	.	.	.	.	.
.	2B\	ma-	2.d\	e-	2G/	-o	2g\	-o	2dd\	in
*	*	*	*	*	*	*	*custos:g	*	*	*
!	!	!	!	!	!	!	!LO:LB:g=original	!	!	!
=120-	=120-	=120-	=120-	=120-	=120-	=120-	=120-	=120-	=120-	=120-
1ryy	2A\	-net	.	.	1r	.	2r	.	1ee	e-
.	.	.	4c/	.	.	.	.	.	.	.
.	2E/	[et]	1c\	.	.	.	2g\	[et]	.	.
=121-	=121-	=121-	=121-	=121-	=121-	=121-	=121-	=121-	=121-	=121-
1ryy	2F/	e-	.	.	2r	.	2a\	e-	1dd	-o
.	2G\	-go	2B/	.	2.g\	In	2d/	-go	.	.
=122-	=122-	=122-	=122-	=122-	=122-	=122-	=122-	=122-	=122-	=122-
1ryy	2E/	in	1c	o	.	.	2e/	in	1r	.
.	.	.	.	.	4g\	me	.	.	.	.
.	2F/	e-	.	.	2f\	ma-	2a\	e-	.	.
=123-	=123-	=123-	=123-	=123-	=123-	=123-	=123-	=123-	=123-	=123-
*	*	*	*	*ij	*	*	*	*	*	*
1ryy	1C	-o	2.c/	In	2e\	-net	1g	-o	2r	.
*	*	*Xij	*	*	*	*	*	*	*	*ij
.	.	.	.	.	2e\	[et]	.	.	2.gg\	In
.	.	.	4c/	me	.	.	.	.	.	.
=124-	=124-	=124-	=124-	=124-	=124-	=124-	=124-	=124-	=124-	=124-
1ryy	1r	.	2B/	ma-	2d\	e-	2r	.	.	.
.	.	.	.	.	.	.	.	.	4gg\	me
*	*	*	*	*	*custos:c	*	*	*	*	*
!	!	!	!	!	!LO:LB:g=original	!	!	!	!	!
.	.	.	2A/	-net	4c/	-go	2.cc\	In	2ff\	ma-
.	.	.	.	.	4d\	.	.	.	.	.
*	*	*	*	*	*	*	*	*	*	*
=125-	=125-	=125-	=125-	=125-	=125-	=125-	=125-	=125-	=125-	=125-
1ryy	00r	.	2c/	[et]	4e\	.	.	.	2ee\	-net
.	.	.	.	.	4f\	.	4cc\	me	.	.
.	.	.	2G/	e-	2g\	.	2b\	ma-	2dd\	[et]
=126-	=126-	=126-	=126-	=126-	=126-	=126-	=126-	=126-	=126-	=126-
1ryy	.	.	2A/	-go	2e\	in	1.a	-net	0cc	e-
.	.	.	4F/	in	1f\	e-	.	.	.	.
.	.	.	4G/	.	.	.	.	.	.	.
=127-	=127-	=127-	=127-	=127-	=127-	=127-	=127-	=127-	=127-	=127-
1ryy	.	.	4A/	.	.	.	.	.	.	.
.	.	.	4B/	.	.	.	.	.	.	.
.	.	.	1c\	e-	2e\	-o	2g\	[et]	.	.
=128-	=128-	=128-	=128-	=128-	=128-	=128-	=128-	=128-	=128-	=128-
1ryy	.	.	.	.	1r	.	2a\	e-	1dd	-go
.	.	.	2B/	.	.	.	1g\	go	.	.
=129-	=129-	=129-	=129-	=129-	=129-	=129-	=129-	=129-	=129-	=129-
1ryy	0r	.	1c	o	2.e\	In	.	.	1ee	un
.	.	.	.	.	.	.	1cc\	in	.	.
.	.	.	.	.	4e\	me	.	.	.	.
=130-	=130-	=130-	=130-	=130-	=130-	=130-	=130-	=130-	=130-	=130-
1ryy	.	.	1r	.	2f\	ma-	.	.	1dd	e-
.	.	.	.	.	2.g\	-net	2b\	e-	.	.
*	*	*	*custos:g	*Xij	*	*	*	*	*	*
!	!	!	!LO:LB:g=original	!	!	!	!	!	!	!
=131-	=131-	=131-	=131-	=131-	=131-	=131-	=131-	=131-	=131-	=131-
1ryy	2.c\	In	2r	.	.	.	1cc	-o	1ee	-o
.	.	.	.	.	4f\	.	.	.	.	.
.	.	.	2.g\	In	2e\	.	.	.	.	.
.	4c\	me	.	.	.	.	.	.	.	.
*	*custos:B	*	*	*	*	*	*	*ij	*	*Xij
!	!LO:LB:g=original	!	!	!	!	!	!	!	!	!
=132-	=132-	=132-	=132-	=132-	=132-	=132-	=132-	=132-	=132-	=132-
1ryy	2B\	ma-	.	.	2d\	[et]	2r	.	2r	.
.	.	.	4g\	me	.	.	.	.	.	.
.	1A\	-net	2f\	ma-	2.c/	e-	2.a\	In	2.cc\	In
=133-	=133-	=133-	=133-	=133-	=133-	=133-	=133-	=133-	=133-	=133-
1ryy	.	.	1.e	-net	.	.	.	.	.	.
.	.	.	.	.	4A/	.	4a\	me	4cc\	me
.	2E/	[et]	.	.	2B/	.	2g\	ma-	2b/	ma-
=134-	=134-	=134-	=134-	=134-	=134-	=134-	=134-	=134-	=134-	=134-
1ryy	1A	e-	.	.	1c	-go	2e/	-net	1a	-net
.	.	.	2c/	[et]	.	.	2f\	[et]	.	.
=135-	=135-	=135-	=135-	=135-	=135-	=135-	=135-	=135-	=135-	=135-
1ryy	2.G\	-go	2B/	e-	1d	in	1g	e-	1b	[et]
.	.	.	2.d\	.	.	.	.	.	.	.
.	4F/	.	.	.	.	.	.	.	.	.
=136-	=136-	=136-	=136-	=136-	=136-	=136-	=136-	=136-	=136-	=136-
1ryy	2E/	.	.	.	1e	e-	2g\	-go	1cc	e-
.	.	.	4c/	.	.	.	.	.	.	.
.	2C/	in	1c\	go	.	.	2g\	in	.	.
=137-	=137-	=137-	=137-	=137-	=137-	=137-	=137-	=137-	=137-	=137-
*	*lig	*	*	*	*	*	*	*	*	*
1ryy	1G	e-	.	.	2d\	-o	0g	e-	2dd\	-go
.	.	.	2B/	in	1G/	in	.	.	2dd\	in
=138-	=138-	=138-	=138-	=138-	=138-	=138-	=138-	=138-	=138-	=138-
1ryy	1C	.	1c	e-	.	.	.	.	1ee	e-
.	.	.	.	.	2c/	e-	.	.	.	.
*	*Xlig	*	*	*	*	*	*	*	*	*
=139-	=139-	=139-	=139-	=139-	=139-	=139-	=139-	=139-	=139-	=139-
1ryy	00G	-o.	00d	-o.	00B	-o.	00g	-o	00dd	-o.
=140-	=140-	=140-	=140-	=140-	=140-	=140-	=140-	=140-	=140-	=140-
1ryy	.	.	.	.	.	.	.	.	.	.
=141-	=141-	=141-	=141-	=141-	=141-	=141-	=141-	=141-	=141-	=141-
1ryy	.	.	.	.	.	.	.	.	.	.
=142-	=142-	=142-	=142-	=142-	=142-	=142-	=142-	=142-	=142-	=142-
1ryy	.	.	.	.	.	.	.	.	.	.
==	==	==	==	==	==	==	==	==	==	==
*-	*-	*-	*-	*-	*-	*-	*-	*-	*-	*-
!!!system-decoration: [(s1,s2,s3,s4,s5,s6)]
!!!ENC: Marta Opryszak
!!!END: 2022-07-13
!!!ENC: Jan Barakat
!!!END: 2022-08-04
